icon/pk/setting-web.svg

<svg viewBox="0 0 48 48" fill="none" xmlns="http://www.w3.org/2000/svg" height="1em" width="1em">
  <path d="M24 40H7C5.34315 40 4 38.6569 4 37V11C4 9.34315 5.34315 8 7 8H41C42.6569 8 44 9.34315 44 11V23.0588" stroke="black" stroke-width="4" stroke-linecap="round" stroke-linejoin="round"/>
  <path d="M4 11C4 9.34315 5.34315 8 7 8H41C42.6569 8 44 9.34315 44 11V20H4V11Z" fill="#2F88FF" stroke="black" stroke-width="4"/>
  <circle r="2" transform="matrix(-1.31134e-07 -1 -1 1.31134e-07 10 14)" fill="white"/>
  <circle r="2" transform="matrix(-1.31134e-07 -1 -1 1.31134e-07 16 14)" fill="white"/>
  <circle cx="37" cy="34" r="3" stroke="black" stroke-width="4"/>
  <path d="M37 41V37" stroke="black" stroke-width="4" stroke-linecap="round" stroke-linejoin="round"/>
  <path d="M37 31V27" stroke="black" stroke-width="4" stroke-linecap="round" stroke-linejoin="round"/>
  <path d="M30.9378 37.5L34.4019 35.5" stroke="black" stroke-width="4" stroke-linecap="round" stroke-linejoin="round"/>
  <path d="M39.5979 32.5L43.062 30.5" stroke="black" stroke-width="4" stroke-linecap="round" stroke-linejoin="round"/>
  <path d="M30.9378 30.5L34.4019 32.5" stroke="black" stroke-width="4" stroke-linecap="round" stroke-linejoin="round"/>
  <path d="M39.5979 35.5L43.062 37.5" stroke="black" stroke-width="4" stroke-linecap="round" stroke-linejoin="round"/>
</svg>

<svg width="48" height="48" fill="none" xmlns="http://www.w3.org/2000/svg"><path d="M24 40H7a3 3 0 0 1-3-3V11a3 3 0 0 1 3-3h34a3 3 0 0 1 3 3v12.059" stroke="#000" stroke-width="4" stroke-linecap="round" stroke-linejoin="round"/><path d="M4 11a3 3 0 0 1 3-3h34a3 3 0 0 1 3 3v9H4v-9Z" fill="#2F88FF" stroke="#000" stroke-width="4"/><circle r="2" transform="matrix(0 -1 -1 0 10 14)" fill="#fff"/><circle r="2" transform="matrix(0 -1 -1 0 16 14)" fill="#fff"/><circle cx="37" cy="34" r="3" stroke="#000" stroke-width="4"/><path d="M37 41v-4M37 31v-4M30.938 37.5l3.464-2M39.598 32.5l3.464-2M30.938 30.5l3.464 2M39.598 35.5l3.464 2" stroke="#000" stroke-width="4" stroke-linecap="round" stroke-linejoin="round"/></svg>
